material/.icons/material/zip-box.svg

<svg xmlns="http://www.w3.org/2000/svg" viewBox="0 0 24 24"><path d="M14 17h-2v-2h-2v-2h2v2h2m0-6h-2v2h2v2h-2v-2h-2V9h2V7h-2V5h2v2h2m5-4H5c-1.11 0-2 .89-2 2v14a2 2 0 002 2h14a2 2 0 002-2V5a2 2 0 00-2-2z"/></svg>

<?xml version="1.0" encoding="UTF-8"?><!DOCTYPE svg PUBLIC "-//W3C//DTD SVG 1.1//EN" "http://www.w3.org/Graphics/SVG/1.1/DTD/svg11.dtd"><svg xmlns="http://www.w3.org/2000/svg" xmlns:xlink="http://www.w3.org/1999/xlink" version="1.1" id="mdi-zip-box" width="24" height="24" viewBox="0 0 24 24"><path d="M14,17H12V15H10V13H12V15H14M14,9H12V11H14V13H12V11H10V9H12V7H10V5H12V7H14M19,3H5C3.89,3 3,3.89 3,5V19A2,2 0 0,0 5,21H19A2,2 0 0,0 21,19V5C21,3.89 20.1,3 19,3Z" /></svg>
